packages/icons/src/SVG/pivot.svg

<!-- Generated by IcoMoon.io -->
<svg version="1.1" xmlns="http://www.w3.org/2000/svg" width="12" height="12" viewBox="0 0 12 12">
<title>pivot</title>
<path d="M12 0v12h-12v-12h12zM1 11h3l-3-2.5v2.5zM4 9v2h7v-10h-10v7.5l3-2.5v2h4v-4h-2l2.5-3 2.5 3h-2v5h-5z"></path>
</svg>

<svg width="12" height="12" viewBox="0 0 12 12" >
<path fill-rule="evenodd" clip-rule="evenodd" d="M12 0H0V12H12V0ZM1 11L1 8.5L4 11H1ZM4 9V11H11V4V1H8.5H1L1 8.5L4 6L4 8H8V4H6L8.5 1L11 4H9V9H4Z" />
</svg>
